X:1
T:Jessie over the bridge
C:Trad. / Adap. Jean Banwarth
M:2/2
L:1/8
K:D
|:B/c/defg2fg|eaafgfed|B/c/defg2fg|1eaged3A:|2eagedABA|GEEEGEBE|GEBED2EF|GEEEGABd|edcAdABA|GEEE[BE]E[=cE]E|BEEEDzEF|GEEEGABd|edcAd3A| \
K:G
